assets/u-magnet.svg

<svg xmlns="http://www.w3.org/2000/svg" fill="none" viewBox="0 0 28 28">
  <path fill="#2A2238" d="M14 1.75c-3.2489 0-6.36474 1.29062-8.66206 3.58794S1.75 10.7511 1.75 14v4.65c0 .3314.26863.6.6.6h5.8c.33137 0 .6-.2686.6-.6V14c0-1.3924.55312-2.7277 1.5377-3.7123C11.2723 9.30312 12.6076 8.75 14 8.75c1.3924 0 2.7277.55312 3.7123 1.5377.9846.9846 1.5377 2.3199 1.5377 3.7123v4.65c0 .3314.2686.6.6.6h5.8c.3314 0 .6-.2686.6-.6V14c0-3.2489-1.2906-6.36474-3.5879-8.66206C20.3647 3.04062 17.2489 1.75 14 1.75ZM26.25 21.6c0-.3314-.2686-.6-.6-.6h-5.8c-.3314 0-.6.2686-.6.6v4.05c0 .3314.2686.6.6.6h5.8c.3314 0 .6-.2686.6-.6V21.6Zm-17.5 0c0-.3314-.26863-.6-.6-.6h-5.8c-.33137 0-.6.2686-.6.6v4.05c0 .3314.26863.6.6.6h5.8c.33137 0 .6-.2686.6-.6V21.6ZM0 14c0-3.713 1.475-7.27399 4.10051-9.89949C6.72601 1.475 10.287 0 14 0s7.274 1.475 9.8995 4.10051C26.525 6.72601 28 10.287 28 14v13.4c0 .3314-.2686.6-.6.6h-9.3c-.3314 0-.6-.2686-.6-.6V14c0-.9283-.3688-1.8185-1.0251-2.4749C15.8185 10.8687 14.9283 10.5 14 10.5c-.9283 0-1.8185.3687-2.4749 1.0251C10.8687 12.1815 10.5 13.0717 10.5 14v13.4c0 .3314-.2686.6-.6.6H.600001C.26863 28 0 27.7314 0 27.4V14Z"/>
</svg>

<svg width="28" height="28" viewBox="0 0 28 28" fill="none" xmlns="http://www.w3.org/2000/svg">
<path d="M14 1.75C10.7511 1.75 7.63526 3.04062 5.33794 5.33794C3.04062 7.63526 1.75 10.7511 1.75 14V18.65C1.75 18.9814 2.01863 19.25 2.35 19.25H8.15C8.48137 19.25 8.75 18.9814 8.75 18.65V14C8.75 12.6076 9.30312 11.2723 10.2877 10.2877C11.2723 9.30312 12.6076 8.75 14 8.75C15.3924 8.75 16.7277 9.30312 17.7123 10.2877C18.6969 11.2723 19.25 12.6076 19.25 14V18.65C19.25 18.9814 19.5186 19.25 19.85 19.25H25.65C25.9814 19.25 26.25 18.9814 26.25 18.65V14C26.25 10.7511 24.9594 7.63526 22.6621 5.33794C20.3647 3.04062 17.2489 1.75 14 1.75ZM26.25 21.6C26.25 21.2686 25.9814 21 25.65 21H19.85C19.5186 21 19.25 21.2686 19.25 21.6V25.65C19.25 25.9814 19.5186 26.25 19.85 26.25H25.65C25.9814 26.25 26.25 25.9814 26.25 25.65V21.6ZM8.75 21.6C8.75 21.2686 8.48137 21 8.15 21H2.35C2.01863 21 1.75 21.2686 1.75 21.6V25.65C1.75 25.9814 2.01863 26.25 2.35 26.25H8.15C8.48137 26.25 8.75 25.9814 8.75 25.65V21.6ZM0 14C0 10.287 1.475 6.72601 4.10051 4.10051C6.72601 1.475 10.287 0 14 0C17.713 0 21.274 1.475 23.8995 4.10051C26.525 6.72601 28 10.287 28 14V27.4C28 27.7314 27.7314 28 27.4 28H18.1C17.7686 28 17.5 27.7314 17.5 27.4V14C17.5 13.0717 17.1312 12.1815 16.4749 11.5251C15.8185 10.8687 14.9283 10.5 14 10.5C13.0717 10.5 12.1815 10.8687 11.5251 11.5251C10.8687 12.1815 10.5 13.0717 10.5 14V27.4C10.5 27.7314 10.2314 28 9.9 28H0.600001C0.26863 28 0 27.7314 0 27.4V14Z" fill="#2A2238"/>
</svg>
